dist/assets/img/tasks/tasks-background.svg

<svg width="975" height="828" fill="none" xmlns="http://www.w3.org/2000/svg"><g opacity=".07" fill="#0C4AB3"><path d="M428.292 188.289L292.785 305.188v62.465l135.507 138.761V188.289zm0 638.926L0 413.607h222.143l206.149 211.489v202.119z"/><path d="M428.292 0L0 413.607l113.293 111.545 314.999-323.033V0zm118.18 638.925L681.98 522.026v-62.465L546.472 320.8v318.125zm0-638.925l428.293 413.607H753.066L546.472 202.119V0z"/><path d="M546.472 827.212l428.293-413.608L861.916 302.06 546.472 625.093v202.119z"/></g></svg>

<svg width="975" height="828" viewBox="0 0 975 828" fill="none" xmlns="http://www.w3.org/2000/svg">
<g opacity="0.07">
<path d="M428.292 188.289L292.785 305.188V367.653L428.292 506.414V188.289Z" fill="#0C4AB3"/>
<path d="M428.292 827.215L0 413.607H222.143L428.292 625.096V827.215Z" fill="#0C4AB3"/>
<path d="M428.292 0L0 413.607L113.293 525.152L428.292 202.119V0Z" fill="#0C4AB3"/>
<path d="M546.472 638.925L681.98 522.026V459.561L546.472 320.8V638.925Z" fill="#0C4AB3"/>
<path d="M546.472 0L974.765 413.607H753.066L546.472 202.119V0Z" fill="#0C4AB3"/>
<path d="M546.472 827.212L974.765 413.604L861.916 302.06L546.472 625.093V827.212Z" fill="#0C4AB3"/>
</g>
</svg>
